X:1
T:Tota formosa
T:Tota formosa
T:Arnold von Bruck
T:Secunda pars
T:Source : Trium vocum cantiones---Nürnberg---J.Petreius---1541. Editor : André Vierendeels (26/04/16).
T:Notes : Original clefs : G2 (from m12: C2), C2 (from m 14: C3), C4 Editorial accidentals above the staff Original note values have been halved Square brackets indicate ligatures See also the "Prima pars : Virgo prudentissima" by the same composer
T:©
T:©
T:©
T:©
T:©
C:Arnold von Bruck
Z:©
%%score [ 1 [ 2 3 ] ]
L:1/8
Q:1/4=100
M:2/2
K:F
V:1 treble nm="Soprano" snm="S"
V:2 treble nm="Alto" snm="A"
V:3 treble-8 nm="Tenor" snm="T"
V:1
 G8 | F8 | B8 | z4 c4 | d3 c de f2- | f2 ed e4 | d2 DE FGAB | c2 d4 c2 | d2 f4 ed | e2 f2 d4 | c8 | %11
w: To|_|ta|for|mo _ _ _ _|_ _ _ sa,|for- mo- * * * * *||||sa,|
 z4 d4- |"^-natural" d2 cB cdef | e2 d4 c2 | d8 | z4 A4- | A4 A4 | A4 A4 | A8 | G8 | z2 B4 B2 | %21
w: for-|* * * mo- * * *||sa|et|_ su-|a- vis|es,|_|et su-|
 B2 B2 B2 AG | A4 z2 A2- | A2 A2 A2 A2 | A6 GF | G3 A Bc d2- | dc c4 B2 | c8 | z8 | z8 | z8 | z8 | %32
w: a- vis es, _ _|_ et|_ su- a- vis|es, _ _|_ _ _ _ _|||||||
 z8 | z4 B4 | c4 d4 | z8 | d4 d4 | A4 z2 c2 | c4 G3 A | Bc d4 cB | A2 c2 c4 | G4 z4 | z4 G4 | %43
w: |pul-|chra _||ut Lu-|na, ut|lu- * *||na, ut Lu-|na|ut|
 G4 D3 E | FG A4 GF | ED G4 F2 | G4 z4 | B4 c4 | d4 G4 | z4 B4 | c4 d4 | G4 z2 F2 | G4 A4 | %53
w: Lu- * *|||na,|e- le-|* cta,|e-|le- *|cta, e-|le- *|
 D3 E FG A2- | AFGA B3 A | G2 F2 G2 A2- | AG G4 F2 | G8 | z8 | z8 | G4 A2 B2- | B2 AG A4 | %62
w: ||||cta|||ut _ _|_ _ _ _|
 G4 z2 F2 | E2 D2 C2 D2- | D2 C2 D3 E | F2 G4 F2 | G4 z2 d2 | dcAB c3 B | GA B3 AFG | A3 G EF G2- | %70
w: Sol, ut|_ _ _ _|||Sol, ut|_ _ _ _ _ _|||
 GFDE FG A2- |"^#" AG G4 F2 | G8 |] %73
w: ||Sol.|
V:2
 z8 | z8 | z8 | z8 | D8 | C8 | F8 | z4 G4 | A3 G AB c2- | c2 BA B4 | A2 A,B, CDEF | G2 A4 G2 | %12
w: ||||||ta|for-|mo- * * * *||sa, for- * * * * *|mo- * *|
 A3 G F2 ED | C2 F2 E4 | D4 z4 | D8 | D4 F4 | F4 F4- | F2 ED C2 D2 | E8 | D8 | z4 z2 D2- | %22
w: ||sa|et|su- a-|vis es,|_ _ _ _ _|||et|
 D2 D2 D2 D2 | D6 CB, | C4 D4 |"^b" E6 DC | B,2 C2 D4 | C4 z4 | C4 D4 | D4 z2 D2 | D4 A,2 C2- | %31
w: _ su- a- vis|es, _ _|_ _||||pul- *|chra ut|Lu- na, ut|
 C2 B,A, G,2 B,2- | B,2 A,G, A,4 | G,2 D4 CB, |"^b" E4 D4 | z4 F4 | G4 A4 | z2 A2 A4 | E4 z2 G2 | %39
w: _ Lu- * * *|||* na,|pul-|chra _|ut Lu-|na, ut|
 G4 D3 E | FG A4 GF |"^#" ED G4 F2 | G4 z4 | z4 z2 D2 | D4 A,2 C2- | CB, G,2 A,4 | %46
w: Lu- * *|||na,|ut|Lu- * *||
 G,A,B,C DG, G2- | GF D2 E4 | D4 z4 | F4 G4 | A4 DEFD | E3 D B,4 | z8 | B,4 C4 | D4 G,4 | %55
w: ||na,|e- le-||* * cta||e- le-||
 D4 B,2 C2- | CB,A,G, A,4 | G,4 z4 | G,4 A,2 B,2- | B,2 A,G, A,4 | G,4 D4 | E2 F4 ED | E4 D4 | z8 | %64
w: ||cta|ut Sol, _|_ _ _ _|* ut|Sol, _ _ _|_ _||
 G,4 A,2 B,2- | B,2 A,G, A,4 | G,4 G3 F | DE F3 ECD | _E3 D B,C D2- | DCA,B, C3 B, | G,A,B,C D4 | %71
w: ut- * *||Sol ut _|_ _ _ _ _ _||||
 C2 B,2 A,4 | G,8 |] %73
w: |Sol.|
V:3
 z8 | z8 | G8 | F8 | B8 | z4 c4 | d3 c de f2- | f2 ed e4 |"^#" d2 DE FGAB | c2 d2 z2 G2 | %10
w: ||||ta|for-|mo- * * * *|* * * sa,|for- mo- * * * * *|* sa, for-|
 A2 FG AB c2- | c2 BA B4 | A8- | A8 | D8 | z4 D4- | D4 D4 | F4 F4 | F8 | C8 | z2 G4 G2 | G2 G2 G4 | %22
w: mo- * * * * *||||sa|et|_ su-|a- vis|es,|_|et su-|a- vis es,|
 D4 z2 D2- | D2 D2 F2 F2 | F6 ED | C4 G4 | z4 G4 | A4 A4 | z4 G4 | G8 | D2 F4 ED | C3 D EF G2- | %32
w: _ et|_ su- a- vis|es, _ _|_ _|pul-|* chra|ut|Lu-|||
 G2 FE F2 G2 | G8 | z4 B4 | c4 d4 | z4 d4 | d4 A4 | z2 c2 c4 | G3 A Bc d2- | d2 cB AG c2- | %41
w: |na,|pul-|chra _|ut|Lu- na,|ut Lu-|||
 cB G2 A4 | G8 | z2 G2 G4 | D2 F4 ED | C2 E2 D4 | G8 | z8 | B4 c4 | d4 G4 | z4 B4 | c4 d4 | %52
w: |na,|ut Lu-|||na,||e- le-|* cta|e-|le- *|
 G4 z2 F2 | G4 A4 | D4 d3 c | B2 A2 G2 F2 | E4 D4 | G8 | z4 D4 | E2 F4 ED | E4 D4 | z8 | z4 D4 | %63
w: cta, e-|le- *|cta, e _|_ le- * *||cta|ut|_ _ _ _|* Sol,||ut|
 E2 F4 ED | E4 D4- | D8 | d3 G G2 B2- | BA F3 GAB | c2 G3 A B2 | F3 G A2 E2- | EF G3 FDE | %71
w: _ _ _ _|* Sol,|_|ut _ _ _|_ _ _ _ _ _||||
 F2 G2 D4 | G8 |] %73
w: |Sol.|

